_includes/icons/ios-bank.svg

<svg fill="#666" height="50" viewBox="0 0 50 50" width="50" xmlns="http://www.w3.org/2000/svg"><path d="m24.982422 2a1.0001 1.0001 0 0 0 -.447266.1132812l-20.9999998 10.9999998a1.0001 1.0001 0 0 0 -.5351562.886719v3a1.0001 1.0001 0 0 0 1 1h1v1.400391c0 1.211901.8642937 2.244637 2 2.521484v18.089844h-2.9003906l.1660156.013672c-1.2320211-.207389-2.265625.849305-2.265625 2.005859v2.748047c0 1.180165.9340538 2.220703 2.0996094 2.220703h41.7011716c1.165556 0 2.09961-.962587 2.09961-2.119141v-2.748047c0-1.156553-.934054-2.121093-2.09961-2.121093h-2.800781v-18.089844c1.135706-.276847 2-1.309583 2-2.521484v-1.400391h1a1.0001 1.0001 0 0 0 1-1v-3a1.0001 1.0001 0 0 0 -.535156-.886719l-21-10.9999998a1.0001 1.0001 0 0 0 -.482422-.1132812zm.017578 2.1308594 20 10.4746096v1.394531h-.832031a1.0001 1.0001 0 0 0 -.326172 0h-9.6875a1.0001 1.0001 0 0 0 -.169922-.013672 1.0001 1.0001 0 0 0 -.144531.013672h-3.671875a1.0001 1.0001 0 0 0 -.326172 0h-9.6875a1.0001 1.0001 0 0 0 -.169922-.013672 1.0001 1.0001 0 0 0 -.144531.013672h-3.671875a1.0001 1.0001 0 0 0 -.326172 0h-9.6875001a1.0001 1.0001 0 0 0 -.1699219-.013672 1.0001 1.0001 0 0 0 -.1445312.013672h-.8398438v-1.394531zm-18 13.8691406h8v1.400391c0 .381481-.218128.599609-.599609.599609h-6.8007816c-.3814815 0-.5996094-.218128-.5996094-.599609zm10 0h2v1.400391c0 1.211901.864294 2.244637 2 2.521484v18.089844h-6v-18.089844c1.135706-.276847 2-1.309583 2-2.521484zm4 0h8v1.400391c0 .381481-.218128.599609-.599609.599609h-6.800782c-.381481 0-.599609-.218128-.599609-.599609zm10 0h2v1.400391c0 1.211901.864294 2.244637 2 2.521484v18.089844h-6v-18.089844c1.135706-.276847 2-1.309583 2-2.521484zm4 0h8v1.400391c0 .381481-.218128.599609-.599609.599609h-6.800782c-.381481 0-.599609-.218128-.599609-.599609zm-26 4h4v18h-4zm14 0h4v18h-4zm14 0h4v18h-4zm-33.015625 20.003906a1.0001 1.0001 0 0 0 .1152344.007813h41.7011716c.03444 0 .09961.05565.09961.121093v2.748047c0 .065449-.065165.119141-.09961.119141h-41.7011716c-.0344445 0-.0996094.023132-.0996094-.220703v-2.748047c0-.023115-.0086663-.023509-.015625-.027344z"/></svg>

<svg xmlns="http://www.w3.org/2000/svg" viewBox="0 0 50 50" width="50" height="50" fill="#666"><path style="line-height:normal;text-indent:0;text-align:start;text-decoration-line:none;text-decoration-style:solid;text-decoration-color:#000;text-transform:none;block-progression:tb;isolation:auto;mix-blend-mode:normal" d="M 24.982422 2 A 1.0001 1.0001 0 0 0 24.535156 2.1132812 L 3.5351562 13.113281 A 1.0001 1.0001 0 0 0 3 14 L 3 17 A 1.0001 1.0001 0 0 0 4 18 L 5 18 L 5 19.400391 C 5 20.612292 5.8642937 21.645028 7 21.921875 L 7 40.011719 L 4.0996094 40.011719 L 4.265625 40.025391 C 3.0336039 39.818002 2 40.874696 2 42.03125 L 2 44.779297 C 2 45.959462 2.9340538 47 4.0996094 47 L 45.800781 47 C 46.966337 47 47.900391 46.037413 47.900391 44.880859 L 47.900391 42.132812 C 47.900391 40.976259 46.966337 40.011719 45.800781 40.011719 L 43 40.011719 L 43 21.921875 C 44.135706 21.645028 45 20.612292 45 19.400391 L 45 18 L 46 18 A 1.0001 1.0001 0 0 0 47 17 L 47 14 A 1.0001 1.0001 0 0 0 46.464844 13.113281 L 25.464844 2.1132812 A 1.0001 1.0001 0 0 0 24.982422 2 z M 25 4.1308594 L 45 14.605469 L 45 16 L 44.167969 16 A 1.0001 1.0001 0 0 0 43.841797 16 L 34.154297 16 A 1.0001 1.0001 0 0 0 33.984375 15.986328 A 1.0001 1.0001 0 0 0 33.839844 16 L 30.167969 16 A 1.0001 1.0001 0 0 0 29.841797 16 L 20.154297 16 A 1.0001 1.0001 0 0 0 19.984375 15.986328 A 1.0001 1.0001 0 0 0 19.839844 16 L 16.167969 16 A 1.0001 1.0001 0 0 0 15.841797 16 L 6.1542969 16 A 1.0001 1.0001 0 0 0 5.984375 15.986328 A 1.0001 1.0001 0 0 0 5.8398438 16 L 5 16 L 5 14.605469 L 25 4.1308594 z M 7 18 L 15 18 L 15 19.400391 C 15 19.781872 14.781872 20 14.400391 20 L 7.5996094 20 C 7.2181279 20 7 19.781872 7 19.400391 L 7 18 z M 17 18 L 19 18 L 19 19.400391 C 19 20.612292 19.864294 21.645028 21 21.921875 L 21 40.011719 L 15 40.011719 L 15 21.921875 C 16.135706 21.645028 17 20.612292 17 19.400391 L 17 18 z M 21 18 L 29 18 L 29 19.400391 C 29 19.781872 28.781872 20 28.400391 20 L 21.599609 20 C 21.218128 20 21 19.781872 21 19.400391 L 21 18 z M 31 18 L 33 18 L 33 19.400391 C 33 20.612292 33.864294 21.645028 35 21.921875 L 35 40.011719 L 29 40.011719 L 29 21.921875 C 30.135706 21.645028 31 20.612292 31 19.400391 L 31 18 z M 35 18 L 43 18 L 43 19.400391 C 43 19.781872 42.781872 20 42.400391 20 L 35.599609 20 C 35.218128 20 35 19.781872 35 19.400391 L 35 18 z M 9 22 L 13 22 L 13 40 L 9 40 L 9 22 z M 23 22 L 27 22 L 27 40 L 23 40 L 23 22 z M 37 22 L 41 22 L 41 40 L 37 40 L 37 22 z M 3.984375 42.003906 A 1.0001 1.0001 0 0 0 4.0996094 42.011719 L 45.800781 42.011719 C 45.835221 42.011719 45.900391 42.067369 45.900391 42.132812 L 45.900391 44.880859 C 45.900391 44.946308 45.835226 45 45.800781 45 L 4.0996094 45 C 4.0651649 45 4 45.023132 4 44.779297 L 4 42.03125 C 4 42.008135 3.9913337 42.007741 3.984375 42.003906 z"/></svg>
